X:35
T: Bachuan hozi
N: C1533
O: China, Fujian, Ningde
S: II, 599]
R: Haozi, Chuangong haozi]
M: 2/4
L: 1/16
K: G
A4BAB2 | B2BAA4 | BA3A2GE | D6E2
G3AGAGE | D6E2 | G3AGAGE | D4D4
A4B2A2A4 | B2BAA4 | A2A4E2 | G4G4
G3AGAGE | D6E2 | G2A2GAGE | D4D4
E2E2A4 | A2A2B2A2 | A2G2E4 | A4A2B2
A2ABAGE2 | D6E2 | A2GAGAGE | D4D4
G2G2AGE2 | B2A4A2 | G2A2E4 | D4D4
E3GEDB,2 | D4D4 | E3GEDB,2 | D4D4
A2A4B2 | A2ABB2A2 | A4E4 | G8
G2GAGAGE | D8 | G2GAGAGE | D8
A2A4B2 | B2ABAGE2 | E2EGABAE | G4G4
A8 | G2A2GAGE | D8 | G2A2GAGE | D8
A4B2A2 | B2ABAGE2 | E2E2A2E2 | G8
G2A2GAGE | D8 | G2A2GAGE | D8
G2G4E2 | A2B2A2B2 | G2A2B4 | A4A4
A2B2ABAE | D4D3E | G3AGAGE | D4D4
E2E4z2 | B2B2A2B2 | A4E4 | G8
G2A2GAGE | D4-D3E | G3AA2GE | D8

